assets/Japanese acceptable button/Flat/japanese_acceptable_button_flat.svg

<svg width="32" height="32" viewBox="0 0 32 32" fill="none" xmlns="http://www.w3.org/2000/svg">
<path d="M30 16C30 23.732 23.732 30 16 30C8.26801 30 2 23.732 2 16C2 8.26801 8.26801 2 16 2C23.732 2 30 8.26801 30 16Z" fill="#FF822D"/>
<path d="M9 8C8.44771 8 8 8.44771 8 9C8 9.55229 8.44771 10 9 10H20V22H17C16.4477 22 16 22.4477 16 23C16 23.5523 16.4477 24 17 24H21C21.5523 24 22 23.5523 22 23V10H23C23.5523 10 24 9.55229 24 9C24 8.44771 23.5523 8 23 8H9Z" fill="white"/>
<path d="M11 12C10.4477 12 10 12.4477 10 13V20C10 20.5523 10.4477 21 11 21C11.5523 21 12 20.5523 12 20H17C17.5523 20 18 19.5523 18 19V13C18 12.4477 17.5523 12 17 12H11ZM16 14V18H12V14H16Z" fill="white"/>
</svg>

<svg xmlns="http://www.w3.org/2000/svg" width="32" height="32" fill="none"><path fill="#FF822D" d="M30 16c0 7.732-6.268 14-14 14S2 23.732 2 16 8.268 2 16 2s14 6.268 14 14Z"/><path fill="#fff" d="M9 8a1 1 0 1 0 0 2h11v12h-3a1 1 0 1 0 0 2h4a1 1 0 0 0 1-1V10h1a1 1 0 1 0 0-2H9Z"/><path fill="#fff" d="M11 12a1 1 0 0 0-1 1v7a1 1 0 1 0 2 0h5a1 1 0 0 0 1-1v-6a1 1 0 0 0-1-1h-6Zm5 2v4h-4v-4h4Z"/></svg>
